static/assets/images/icons/slideshow.svg

<svg width="256" height="256" viewBox="0 0 256 256" fill="none" xmlns="http://www.w3.org/2000/svg">
<path d="M165.108 132.585C166.554 131.624 167.277 130.262 167.277 128.5C167.277 126.738 166.554 125.376 165.108 124.415L111.373 90.0556C109.767 88.9343 108.119 88.8542 106.429 89.8153C104.739 90.7764 103.897 92.2181 103.904 94.1403V162.86C103.904 164.782 104.749 166.224 106.439 167.185C108.129 168.146 109.773 168.066 111.373 166.944L165.108 132.585ZM47.2771 215C41.9759 215 37.4394 213.119 33.6675 209.358C29.8956 205.597 28.0064 201.07 28 195.778V61.2222C28 55.9361 29.8892 51.4125 33.6675 47.6513C37.4458 43.8902 41.9823 42.0064 47.2771 42H208.723C214.024 42 218.564 43.8838 222.342 47.6513C226.12 51.4189 228.006 55.9425 228 61.2222V195.778C228 201.064 226.114 205.591 222.342 209.358C218.57 213.126 214.031 215.006 208.723 215H47.2771Z" fill="black"/>
</svg>

<svg xmlns="http://www.w3.org/2000/svg" fill="none" viewBox="0 0 256 256"><path fill="#000" d="M165.108 132.585q2.169-1.442 2.169-4.085t-2.169-4.085l-53.735-34.36q-2.409-1.68-4.944-.24-2.535 1.442-2.525 4.325v68.72q0 2.883 2.535 4.325 2.534 1.442 4.934-.241zM47.278 215q-7.953 0-13.61-5.642-5.658-5.642-5.668-13.58V61.222q0-7.93 5.667-13.57 5.668-5.643 13.61-5.652h161.446q7.952 0 13.619 5.651 5.667 5.652 5.658 13.571v134.556q0 7.93-5.658 13.58-5.657 5.651-13.619 5.642z"/></svg>
